X: 4
T: The Kerfunten
R: jig
M: 6/8
L: 1/8
K: Gmaj
|:B3 BAG|dB/c/d efg|dB/c/d gdB|A3 DFA|
B3 BAG|dB/c/d efg|dB/c/d gdB|1 cAF G2A:|2 cAF GB/c/d||
|:g3 gab|e3 edB|g3 gab|bag a2f|
g3 gab|efe efg|dB/c/d gdB|1 cAF GB/c/d:|2 cAF G2A||


Tune 139	Setting 12759

